neru-dark-classic/22x22/actions/image-denoise-symbolic.svg

<svg xmlns="http://www.w3.org/2000/svg" width="22" height="22" version="1.1" id="svg7"><defs id="defs3"><style type="text/css" id="current-color-scheme"></style></defs><path transform="translate(3 3)" d="M1 1v2h4v2h2V1H1zm6 4v2h4V5H7zm4 0h2V3h-2v2zm0-2V1H9v2h2zM7 7H5v2h2V7zM5 9H3v2h2V9zM3 9V7H1v2h2zm0-2h2V5H3v2zm8 2v2h2V9h-2zm2 2v4h2v-4h-2zm-6 0v2h2v-2H7zm2 2v2h2v-2H9zm-6 0v2h2v-2H3z" id="path5" fill="currentColor" opacity="1" color="#d3dae3"/></svg>

<?xml version="1.0" encoding="UTF-8" standalone="no"?>
<svg
   xmlns:dc="http://purl.org/dc/elements/1.1/"
   xmlns:cc="http://creativecommons.org/ns#"
   xmlns:rdf="http://www.w3.org/1999/02/22-rdf-syntax-ns#"
   xmlns:svg="http://www.w3.org/2000/svg"
   xmlns="http://www.w3.org/2000/svg"
   xmlns:sodipodi="http://sodipodi.sourceforge.net/DTD/sodipodi-0.dtd"
   xmlns:inkscape="http://www.inkscape.org/namespaces/inkscape"
   width="22"
   height="22"
   viewBox="0 0 22 22"
   version="1.1"
   id="svg7"
   sodipodi:docname="image-denoise-symbolic.svg"
   inkscape:version="0.92.1 r">
  <metadata
     id="metadata11">
    <rdf:RDF>
      <cc:Work
         rdf:about="">
        <dc:format>image/svg+xml</dc:format>
        <dc:type
           rdf:resource="http://purl.org/dc/dcmitype/StillImage" />
        <dc:title></dc:title>
      </cc:Work>
    </rdf:RDF>
  </metadata>
  <sodipodi:namedview
     pagecolor="#ffffff"
     bordercolor="#666666"
     borderopacity="1"
     objecttolerance="10"
     gridtolerance="10"
     guidetolerance="10"
     inkscape:pageopacity="0"
     inkscape:pageshadow="2"
     inkscape:window-width="769"
     inkscape:window-height="480"
     id="namedview9"
     showgrid="false"
     inkscape:zoom="10.727273"
     inkscape:cx="11"
     inkscape:cy="11"
     inkscape:window-x="0"
     inkscape:window-y="0"
     inkscape:window-maximized="0"
     inkscape:current-layer="svg7" />
  <defs
     id="defs3">
    <style
       type="text/css"
       id="current-color-scheme">
   .ColorScheme-Text { color:#d3dae3; } .ColorScheme-Highlight { color:#5294e2; }
  </style>
  </defs>
  <path
     style="fill:currentColor;opacity:1"
     class="ColorScheme-Text"
     transform="translate(3 3)"
     d="M 1 1 L 1 3 L 3 3 L 5 3 L 5 5 L 7 5 L 7 3 L 7 1 L 5 1 L 3 1 L 1 1 z M 7 5 L 7 7 L 9 7 L 11 7 L 11 5 L 9 5 L 7 5 z M 11 5 L 13 5 L 13 3 L 11 3 L 11 5 z M 11 3 L 11 1 L 9 1 L 9 3 L 11 3 z M 7 7 L 5 7 L 5 9 L 7 9 L 7 7 z M 5 9 L 3 9 L 3 11 L 5 11 L 5 9 z M 3 9 L 3 7 L 1 7 L 1 9 L 3 9 z M 3 7 L 5 7 L 5 5 L 3 5 L 3 7 z M 11 9 L 11 11 L 13 11 L 13 9 L 11 9 z M 13 11 L 13 13 L 13 15 L 15 15 L 15 13 L 15 11 L 13 11 z M 7 11 L 7 13 L 9 13 L 9 11 L 7 11 z M 9 13 L 9 15 L 11 15 L 11 13 L 9 13 z M 3 13 L 3 15 L 5 15 L 5 13 L 3 13 z"
     id="path5" />
</svg>
